!!!OTL: Martinsgans.
!!!ARE: Europa, Mitteleuropa, Deutschland
!!!TXL: @@LAT, @@GMH
!!!SCT: A0353
!!!YEM: Copyright 1995, estate of Helmut Schaffrath.
**kern	**text
!! Mixed meters:  4/1; 4/2; 3/1
*M4/1	*
*met(c|)	*
*clefC3	*
*k[b-]	*
*F:ion	*
=1	=1
!LO:TX:a:t=jon. F.	!
{0F	Pre-
*lig	*
!LO:N:vis=0	!
1A	-su-
!LO:N:vis=0	!
1B-	.
*Xlig	*
=2	=2
1c	-lem
1c	san-
1d	-ctis-
1d	-si-
=3	=3
!LO:N:vis=0	!
00c}	-mum
=4||	=4||
{1c	ve-
2c	-ne-
1c	-re-
4B-	.
4A	.
1G	.
=5	=5
0F	-mus,
1c	Gaude-
1c	.
=6	=6
0d	-a-
0c;}	-mus,
=7||	=7||
*M4/2	*
{2F	wö-
2F	-len
2A	wir
2B-	nach
=8	=8
1c	gras
1c	gan,
=9	=9
2c	holle-
2c	.
1d	-rey-
=10	=10
1c	-o!
2r}	.
{2c	ſo
=11	=11
2c	ſin-
2c	-gen
2c	vns
2c	die
=12	=12
2.c/	vö-
4B-	-ge-
1A	-lein,
=13	=13
2B-	hol-
2G	-le-
1A	-rei,
=14	=14
2r}	.
{2A	in
2.c/	hoc
4B-	so-
=15	=15
2A	-lem-
2F	-ni
1G	fe-
=16	=16
0F;	-sto,
=17	=17
2A	Ʒir,
2A	ʒir,
1B-	pas-
=18	=18
1c	-ser,
2r	.
2c	der
=19	=19
2d	gutʒ-
2B-	-gauch
1c	frey,
=20	=20
2r}	.
{2c	ſein
2d	me-
2B-	-lo-
=21	=21
1c	-dei
2r	.
2c	helt
=22	=22
2d	ü-
2d	-ber
1c	berg
=23	=23
2B-	vnd
*lig	*
2.c/	tie-
4B-	.
2A	.
*Xlig	*
=24	=24
!LO:TX:a:t=P:1G in preceeding measure:problem	!
1G	-fe
!LO:TX:a:t=P:0F in the source:problem	!
!LO:N:vis=0	!
1F;}	tal.
=25||	=25||
*M3/1	*
*met(3)	*
{1r	.
1r	.
1F	Der
=26	=26
0F	mül-
1F	-ler
=27	=27
0A	auf
1B-	der
=28	=28
0c	o-
1c}	-ber-
=29	=29
{0c	-mül
1c	der
=30	=30
0d	hat
1f	ein
=31	=31
!LO:TX:a:t=P:coloured notes:problem	!
1e	fei-
!LO:TX:a:t=P:coloured notes:problem	!
0d	-ſte
=32	=32
*M4/2	*
*met(c|)	*
0c;	gans,
=33	=33
0d;	gans,
=34	=34
0e;	gans,
=35	=35
0f;}	gans,
=36	=36
{0F	Die
=37	=37
2.c/	hat
4B-	ein
2A	fei-
2G	-ſten,
=38	=38
2.c/	di-
4B-	-cken
2A	langen
2G	.
=39	=39
2.c/	wai-
4B-	-de-
2A	-li-
2G	-chen
=40	=40
*lig	*
!LO:N:vis=0	!
1c	kra-
!LO:N:vis=0	!
1f	.
=41	=41
2e	.
4d	.
4c	.
1d}	.
*Xlig	*
=42	=42
{2c/	-gen,
2c/	die
2A	wöl
2B-	wir
=43	=43
1c	mit
2B-	vns
1A	tra-
=44-	=44-
.	.
4G	.
4F	.
1G	.
=45	=45
0F;}	-gen.
=46||	=46||
{2.f	Drußla,
4e	.
2d	druß-
2c	-lä,
=47	=47
2.f	druß-
4e	-la,
2d	druß-
2c	-la,
=48	=48
1d	gick
1c	gack,
=49	=49
2c	gick
1c	gack,
2c	gick
=50	=50
1c;}	gack.
{1c	Dul-
=51	=51
1d	-ci
1f	re-
=52	=52
1e	-so-
1d	-ne-
=53	=53
1c	-mus
2B-	me-
1c	-lo-
=54-	=54-
.	.
4B-	.
4A	.
2G	.
2F	.
=55	=55
1G	-di-
1F/ll}	-a.
==	==
!!!GTL: Trink. und Zechlieder, incl. Fastnacht- u. Martinslieder
!!!AGN: Romanze, Ballade, Lied
!! Forster II. 1540 No. 7.
!!!ONB: ESAC (Essen Associative Code) Database: ALTDEU
!!!AMT: irregular
!!!AIN: vox
!!!EED: Helmut Schaffrath
!!!EEV: 1.0
!!!RDF**kern: l = terminal long
!!!AMD: Ionian
!!!URL-scan: https://rosdok.uni-rostock.de/mcrviewer/recordIdentifier/rosdok_ppn738218359/iview2/phys_0496.iview2?x=-495.6391625615763&y=1671.91625618143&scale=0.4629418472063854&rotation=0&layout=singlePageLayout&logicalDiv=log_0013
!!!ENC: Anna Maria Matuszewska
!!!EEV: 2024/13/03
*-	*-
